img/homelogo.svg

<?xml version="1.0" encoding="UTF-8"?>
<svg xmlns="http://www.w3.org/2000/svg" xmlns:xlink="http://www.w3.org/1999/xlink" width="64pt" height="64pt" viewBox="0 0 64 64" version="1.1">
<g id="surface10709430">
<path style=" stroke:none;fill-rule:nonzero;fill:rgb(28.235294%,78.823529%,69.019608%);fill-opacity:1;" d="M 0.988281 32 C 0.988281 14.875 14.875 0.988281 32 0.988281 C 49.125 0.988281 63.011719 14.875 63.011719 32 C 63.011719 49.125 49.125 63.011719 32 63.011719 C 14.875 63.011719 0.988281 49.125 0.988281 32 Z M 0.988281 32 "/>
<path style=" stroke:none;fill-rule:nonzero;fill:rgb(100%,100%,100%);fill-opacity:1;" d="M 51.011719 25.851562 L 32.25 16.488281 C 32.085938 16.414062 31.914062 16.414062 31.75 16.488281 L 12.976562 25.851562 C 12.761719 25.949219 12.636719 26.148438 12.636719 26.386719 L 12.636719 30.085938 C 12.636719 30.289062 12.738281 30.476562 12.914062 30.585938 C 13.085938 30.699219 13.300781 30.710938 13.476562 30.625 L 32 21.375 L 50.511719 30.625 C 50.585938 30.664062 50.675781 30.6875 50.761719 30.6875 C 50.875 30.6875 50.988281 30.664062 51.074219 30.601562 C 51.25 30.488281 51.351562 30.300781 51.351562 30.101562 L 51.351562 26.375 C 51.351562 26.148438 51.226562 25.9375 51.011719 25.851562 Z M 51.011719 25.851562 "/>
<path style=" stroke:none;fill-rule:nonzero;fill:rgb(100%,100%,100%);fill-opacity:1;" d="M 47.5625 30.726562 L 32 22.976562 L 16.4375 30.726562 L 16.4375 45.101562 L 25.0625 45.101562 L 25.0625 34.074219 L 31 34.074219 L 31 45.101562 L 47.5625 45.101562 Z M 47.5625 30.726562 "/>
<path style=" stroke:none;fill-rule:nonzero;fill:rgb(28.235294%,78.823529%,69.019608%);fill-opacity:1;" d="M 32.960938 34.074219 L 36.960938 34.074219 L 36.960938 38.074219 L 32.960938 38.074219 Z M 32.960938 34.074219 "/>
</g>
</svg>

<svg xmlns="http://www.w3.org/2000/svg" width="64pt" height="64pt" viewBox="0 0 64 64"><path d="M.988 32C.988 14.875 14.875.988 32 .988S63.012 14.875 63.012 32 49.125 63.012 32 63.012.988 49.125.988 32zm0 0" fill="#48c9b0"/><path d="M51.012 25.852L32.25 16.488a.59.59 0 0 0-.5 0l-18.773 9.364a.57.57 0 0 0-.34.535v3.699c0 .203.101.39.277.5a.57.57 0 0 0 .563.039L32 21.375l18.512 9.25c.074.04.164.063.25.063a.531.531 0 0 0 .312-.086.594.594 0 0 0 .278-.5v-3.727a.554.554 0 0 0-.34-.523zm0 0" fill="#fff"/><path d="M47.563 30.727L32 22.977l-15.563 7.75v14.375h8.625V34.074H31v11.028h16.563zm0 0" fill="#fff"/><path d="M32.96 34.074h4v4h-4zm0 0" fill="#48c9b0"/></svg>
